lib/svgs/archive.svg

<svg xmlns="http://www.w3.org/2000/svg" viewBox="0 0 20 20">
    <path fill="#000" fill-rule="evenodd" d="M3.2443,6.626 L3.2443,17.6755 C3.2443,18.0068708 3.51292915,18.2755 3.8443,18.2755 L16.9353,18.2755 C17.2666708,18.2755 17.5353,18.0068708 17.5353,17.6755 L17.5353,6.626 L18.18,6.626 C18.5113708,6.626 18.78,6.35737085 18.78,6.026 L18.78,2.6 C18.78,2.26862915 18.5113708,2 18.18,2 L2.6,2 C2.26862915,2 2,2.26862915 2,2.6 L2,6.026 C2,6.35737085 2.26862915,6.626 2.6,6.626 L3.2443,6.626 L3.2443,6.626 L3.2443,6.626 L3.2443,6.626 Z M16.3353002,17.0762239 L4.44430002,17.0755001 L4.4443,6.626 L16.3353,6.626 L16.3353002,17.0762239 L16.3353002,17.0762239 L16.3353002,17.0762239 Z M3.20786903,3.20000002 L17.6021067,3.20000002 L17.5799995,5.42599998 L3.20786903,5.42599998 L3.20786903,3.20000002 L3.20786903,3.20000002 L3.20786903,3.20000002 Z M10.9898,12.2039719 L11.9887359,11.2050359 C12.2230505,10.9707214 12.6029495,10.9707214 12.8372641,11.2050359 C13.0715786,11.4393505 13.0715786,11.8192495 12.8372641,12.0535641 L10.8142641,14.0765641 C10.5799495,14.3108786 10.2000505,14.3108786 9.96573593,14.0765641 L7.94273593,12.0535641 C7.70842136,11.8192495 7.70842136,11.4393505 7.94273593,11.2050359 C8.17705051,10.9707214 8.55694949,10.9707214 8.79126407,11.2050359 L9.7898,12.2035719 L9.7898,9.3863 C9.7898,9.05492915 10.0584292,8.7863 10.3898,8.7863 C10.7211708,8.7863 10.9898,9.05492915 10.9898,9.3863 L10.9898,12.2039719 L10.9898,12.2039719 L10.9898,12.2039719 Z"/>
</svg>

<svg xmlns="http://www.w3.org/2000/svg" viewBox="0 0 20 20">
    <path fill="#000" fill-rule="evenodd" d="M3.244 6.626v11.05a.6.6 0 0 0 .6.6h13.091a.6.6 0 0 0 .6-.6V6.625h.645a.6.6 0 0 0 .6-.6V2.6a.6.6 0 0 0-.6-.6H2.6a.6.6 0 0 0-.6.6v3.426a.6.6 0 0 0 .6.6h.644m13.091 10.45H4.445V6.626h11.89v10.45M3.208 3.2h14.394l-.022 2.226H3.208V3.2m7.782 9.004l.999-.999a.6.6 0 0 1 .848.849l-2.023 2.023a.6.6 0 0 1-.848 0l-2.023-2.023a.6.6 0 0 1 .848-.849l.999.999V9.386a.6.6 0 0 1 1.2 0v2.818"/>
</svg>
